Papirus/48x48/apps/partitionmanager.svg

<svg width="48" height="48" version="1.1" xmlns="http://www.w3.org/2000/svg">
 <rect x="9" y="5" width="30" height="40" rx="3" ry="3.253" style="opacity:.2"/>
 <rect x="9" y="4" width="30" height="40" rx="3" ry="3.253" style="fill:#e4e4e4"/>
 <path d="m12 6c-0.552285 0-1 0.4477153-1 1s0.447715 1 1 1 1-0.4477153 1-1-0.447715-1-1-1zm4 0c-0.518484 0-1 0.4396893-1 1 0 1.6182918-1.311718 3-3 3-0.562675 0-1 0.478359-1 1v3c0 0.549263 0.442847 1 1 1 1.638564 0 3.001125 1.315417 3 3-3.7e-4 0.553933-0.138317 1.286538-0.755534 2-2.138661 2.47215-3.244466 6.491767-3.244466 8.5v0.5c0 7.179702 5.820298 13 13 13s13-5.820298 13-13v-0.5c0-2.035649-1.081387-6.028048-3.220703-8.5-0.624392-0.721475-0.779297-1.469554-0.779297-2 0-1.712636 1.397131-3 3-3 0.550221 0 1-0.450249 1-1v-3c0-0.543738-0.453895-1-1-1-1.673181 0-3-1.3667337-3-3 0-0.565375-0.45759-1-1-1zm20 0c-0.552285 0-1 0.4477153-1 1s0.447715 1 1 1 1-0.4477153 1-1-0.447715-1-1-1zm-24 11c-0.552285 0-1 0.447715-1 1s0.447715 1 1 1 1-0.447715 1-1-0.447715-1-1-1zm24 0c-0.552285 0-1 0.447715-1 1s0.447715 1 1 1 1-0.447715 1-1-0.447715-1-1-1zm-24 23c-0.552285 0-1 0.447715-1 1s0.447715 1 1 1 1-0.447715 1-1-0.447715-1-1-1zm24 0c-0.552285 0-1 0.447715-1 1s0.447715 1 1 1 1-0.447715 1-1-0.447715-1-1-1z" style="fill:#ababab"/>
 <path d="m12 6c-0.552285 0-1 0.4477153-1 1 2.41e-4 0.1756086 0.04672 0.3480575 0.134766 0.5 0.178491-0.3091563 0.508251-0.4997174 0.865234-0.5 0.356983 2.826e-4 0.686743 0.1908437 0.865234 0.5 0.088045-0.1519425 0.134525-0.3243914 0.134766-0.5 0-0.5522847-0.447715-1-1-1zm4 0c-0.529533 0-1 0.4507379-1 1 0 1.6645418-1.38929 3-3 3-0.562675 0-1 0.467311-1 1v1c0-0.560311 0.453898-1 1-1 1.67171 0 3-1.3596111 3-3 0-0.5824078 0.470467-1 1-1h16c0.554128 0 1 0.4307188 1 1 0 1.6735605 1.366937 3 3 3 0.538987 0 1 0.436945 1 1v-1c0-0.545844-0.434154-1-1-1-1.65365 0-3-1.3432962-3-3 0-0.5380312-0.438059-1-1-1zm20 0c-0.552285 0-1 0.4477153-1 1 2.41e-4 0.1756086 0.04672 0.3480575 0.134766 0.5 0.178491-0.3091563 0.508251-0.4997174 0.865234-0.5 0.356983 2.826e-4 0.686743 0.1908437 0.865234 0.5 0.088045-0.1519425 0.134525-0.3243914 0.134766-0.5 0-0.5522847-0.447715-1-1-1zm-24 11c-0.552285 0-1 0.447715-1 1 2.41e-4 0.175609 0.04672 0.348057 0.134766 0.5 0.178491-0.309156 0.508251-0.499717 0.865234-0.5 0.356983 2.83e-4 0.686743 0.190844 0.865234 0.5 0.088045-0.151943 0.134525-0.324391 0.134766-0.5 0-0.552285-0.447715-1-1-1zm24 0c-0.552285 0-1 0.447715-1 1 2.41e-4 0.175609 0.04672 0.348057 0.134766 0.5 0.178491-0.309156 0.508251-0.499717 0.865234-0.5 0.356983 2.83e-4 0.686743 0.190844 0.865234 0.5 0.088045-0.151943 0.134525-0.324391 0.134766-0.5 0-0.552285-0.447715-1-1-1zm-21.755534 3c-2.138561 2.472236-3.244466 6.519123-3.244466 8.5v0.849609c0-2.625823 1.138224-5.914936 3.244466-8.349609 0.328256-0.379441 0.755534-1 0.755534-3 0 1-0.434879 1.629314-0.755534 2zm18.755534-2c0 2 0.503095 2.680856 0.779297 3 2.109846 2.437868 3.220703 5.630036 3.220703 8.363281v-0.863281c0-2.161043-1.116765-5.997868-3.220703-8.5-0.263628-0.313522-0.779297-1-0.779297-2zm-21 22c-0.552285 0-1 0.447715-1 1 2.41e-4 0.175609 0.04672 0.348057 0.134766 0.5 0.178491-0.309156 0.508251-0.499717 0.865234-0.5 0.356983 2.83e-4 0.686743 0.190844 0.865234 0.5 0.088045-0.151943 0.134525-0.324391 0.134766-0.5 0-0.552285-0.447715-1-1-1zm24 0c-0.552285 0-1 0.447715-1 1 2.41e-4 0.175609 0.04672 0.348057 0.134766 0.5 0.178491-0.309156 0.508251-0.499717 0.865234-0.5 0.356983 2.83e-4 0.686743 0.190844 0.865234 0.5 0.088045-0.151943 0.134525-0.324391 0.134766-0.5 0-0.552285-0.447715-1-1-1z" style="opacity:.2"/>
 <path d="M 12,4 C 10.338,4 9,5.4499311 9,7.2519531 v 1 C 9,6.4499311 10.338,5 12,5 h 24 c 1.662,0 3,1.4499311 3,3.2519531 v -1 C 39,5.4499311 37.662,4 36,4 Z" style="fill:#ffffff;opacity:.2"/>
 <circle cx="24" cy="30" r="2" style="fill:#010101;opacity:.2"/>
 <path d="m24 20v6c2.165856 0 4 1.808707 4 4h6c0-5.648629-4.460384-10-10-10z" style="opacity:.2"/>
 <path d="m24 20v6c-2.156046 0-4 1.849164-4 4h-6c0-5.648629 4.460386-10 10-10z" style="opacity:.2"/>
 <path d="m24 40v-6c-2.191294 0-4-1.754146-4-4h-6c0 5.648626 4.460385 10 10 10z" style="opacity:.2"/>
 <path d="m24 40v-6c2.191294 0 4-1.828935 4-4h6c0 5.648626-4.460382 10-10 10z" style="opacity:.2"/>
 <path d="m24 39v-6c2.191294 0 4-1.828935 4-4h6c0 5.648626-4.460382 10-10 10z" style="fill:#514694"/>
 <path d="m24 39v-6c-2.191294 0-4-1.754146-4-4h-6c0 5.648626 4.460385 10 10 10z" style="fill:#fecd38"/>
 <path d="m24 19v6c-2.156046 0-4 1.849164-4 4h-6c0-5.648629 4.460386-10 10-10z" style="fill:#4bae4f"/>
 <path d="m24 19v6c2.165856 0 4 1.808707 4 4h6c0-5.648629-4.460384-10-10-10z" style="fill:#248afd"/>
 <circle cx="24" cy="29" r="2" style="fill:#e4e4e4"/>
 <path d="m34 29s-1-9-10-9-10 9-10 9c0-5.714286 4.477153-10 10-10s10 4.285714 10 10z" style="fill:#ffffff;opacity:.2"/>
</svg>

<svg xmlns="http://www.w3.org/2000/svg" width="48" height="48" version="1.1">
 <rect style="opacity:0.2" width="30" height="40" x="9" y="5" rx="3" ry="3"/>
 <rect style="fill:#e4e4e4" width="30" height="40" x="9" y="4" rx="3" ry="3"/>
 <path style="fill:#ababab" d="M 12,6 A 1,1 0 0 0 11,7 1,1 0 0 0 12,8 1,1 0 0 0 13,7 1,1 0 0 0 12,6 Z M 36,6 A 1,1 0 0 0 35,7 1,1 0 0 0 36,8 1,1 0 0 0 37,7 1,1 0 0 0 36,6 Z M 12,17 A 1,1 0 0 0 11,18 1,1 0 0 0 12,19 1,1 0 0 0 13,18 1,1 0 0 0 12,17 Z M 36,17 A 1,1 0 0 0 35,18 1,1 0 0 0 36,19 1,1 0 0 0 37,18 1,1 0 0 0 36,17 Z M 12,40 A 1,1 0 0 0 11,41 1,1 0 0 0 12,42 1,1 0 0 0 13,41 1,1 0 0 0 12,40 Z M 36,40 A 1,1 0 0 0 35,41 1,1 0 0 0 36,42 1,1 0 0 0 37,41 1,1 0 0 0 36,40 Z M 16,6 C 15,6 15,7 15,7 15,8.62 13.69,10 12,10 11,10 11,11 11,11 V 14 C 11,15 12,15 12,15 13.64,15 15,16.32 15,18 15,18.55 14.86,19.29 14.24,20 12.11,22.47 11,26.49 11,28.5 V 29 C 11,36.18 16.82,42 24,42 31.18,42 37,36.18 37,29 V 28.5 C 37,26.46 35.92,22.47 33.78,20 33.16,19.28 33,18.53 33,18 33,16.29 34.4,15 36,15 36,15 37,15 37,14 V 11 C 37,11 37,10 36,10 34.33,10 33,8.63 33,7 33,7 33,6 32,6 Z"/>
 <path style="opacity:0.2" d="M 24,20 A 10,10 0 0 0 14,30 10,10 0 0 0 24,40 10,10 0 0 0 34,30 10,10 0 0 0 24,20 Z M 24,26 A 4,4 0 0 1 28,30 4,4 0 0 1 24,34 4,4 0 0 1 20,30 4,4 0 0 1 24,26 Z"/>
 <path style="fill:#248afd" d="M 34,29 H 28 V 30 Z M 24,19 V 25 H 23 Z M 24,19 V 25 A 4,4 0 0 1 28,29 H 34 A 10,10 0 0 0 24,19 Z"/>
 <path style="fill:#514694" d="M 24,33 V 39 L 23,33 Z M 28,29 A 4,4 0 0 1 24,33 V 39 A 10,10 0 0 0 34,29 Z"/>
 <path style="fill:#fecd38" d="M 14,29 20,28 V 29 Z M 14,29 A 10,10 0 0 0 24,39 V 33 A 4,4 0 0 1 20,29 Z"/>
 <path style="fill:#4bae4f" d="M 24,19 A 10,10 0 0 0 14,29 H 20 A 4,4 0 0 1 24,25 Z"/>
 <path style="opacity:0.2" d="M 12,6 A 1,1 0 0 0 11,7 1,1 0 0 0 11.135,7.5 1,1 0 0 1 12,7 1,1 0 0 1 12.863,7.502 1,1 0 0 0 13,7 1,1 0 0 0 12,6 Z M 16,6 C 15,6 15,7 15,7 15,8.62 13.69,10 12,10 11,10 11,11 11,11 V 12 C 11,12 11,11 12,11 13.69,11 15,9.62 15,8 15,8 15,7 16,7 H 32 C 33,7 33,8 33,8 33,9.63 34.33,11 36,11 37,11 37,12 37,12 V 11 C 37,11 37,10 36,10 34.33,10 33,8.63 33,7 33,7 33,6 32,6 Z M 36,6 A 1,1 0 0 0 35,7 1,1 0 0 0 35.135,7.5 1,1 0 0 1 36,7 1,1 0 0 1 36.863,7.502 1,1 0 0 0 37,7 1,1 0 0 0 36,6 Z M 12,17 A 1,1 0 0 0 11,18 1,1 0 0 0 11.135,18.5 1,1 0 0 1 12,18 1,1 0 0 1 12.863,18.502 1,1 0 0 0 13,18 1,1 0 0 0 12,17 Z M 36,17 A 1,1 0 0 0 35,18 1,1 0 0 0 35.135,18.5 1,1 0 0 1 36,18 1,1 0 0 1 36.863,18.502 1,1 0 0 0 37,18 1,1 0 0 0 36,17 Z M 33.045,18.488 C 33.017,18.654 33,18.824 33,19 33,19.53 33.159,20.28 33.779,21 35.84,23.379 36.916,27.163 36.992,29.262 36.994,29.174 37,29.088 37,29 V 28.5 C 37,26.46 35.919,22.47 33.779,20 33.331,19.48 33.126,18.946 33.045,18.488 Z M 14.957,18.512 C 14.88,18.97 14.684,19.492 14.24,20 12.11,22.47 11,26.49 11,28.5 V 29 C 11,29.095 11.006,29.189 11.008,29.283 11.08,27.214 12.182,23.386 14.24,21 14.86,20.29 15,19.55 15,19 15,18.833 14.983,18.671 14.957,18.512 Z M 12,40 A 1,1 0 0 0 11,41 1,1 0 0 0 11.135,41.5 1,1 0 0 1 12,41 1,1 0 0 1 12.863,41.502 1,1 0 0 0 13,41 1,1 0 0 0 12,40 Z M 36,40 A 1,1 0 0 0 35,41 1,1 0 0 0 35.135,41.5 1,1 0 0 1 36,41 1,1 0 0 1 36.863,41.502 1,1 0 0 0 37,41 1,1 0 0 0 36,40 Z"/>
 <circle style="opacity:0.2" cx="24" cy="30" r="2"/>
 <circle style="fill:#e4e4e4" cx="24" cy="29" r="2"/>
</svg>
